X:1
T:Bill Bailey
M:4/4
L:1/4
K:C
Q:100
"C"GA2c|e3/2^d/2eg|GA2c|e4|GA2c|e2g2|"G7"(gB3-|B4)|
GB2d|fefg|GB2d|f4|GB2d|g2"G+"a2|"C"(ae3-|e4)|
GA2c|e3/2^d/2eg|GA2c|e3G|GGce|g2_b2|"F"a2-a2-|a3c|
cc2c|"F#dim7"d2c2|"C"gg2a|"A7"e3e|"D7"ed^cd|"G7"f2e2|"C"c4-|czz2|]

